X: 156
T: Credo de villagiis
N: Derived from Rue1036-Credo_De_villagiis.krn
C: Pierre de la Rue
%%abc-version 2.0
%%abcx-abcm2ps-target-version 5.9.1 (29 Sep 2008)
%%abc-creator hum2abc beta
%%abcx-conversion-date 2019/02/17 08:01:16
%%abc-edited-by Jesse Rodin
%%abc-edited-by Chris Gage 07-05-2013
%%abcx-initial-encoding-date 2013/07/31/
%%humdrum-veritas 3599052993
%%humdrum-veritas-data 780330143
%%linebreak <none>
%%barnumbers 0
L: 1/4
M: 2/1
Q: 1/2=120
%%staves [1 2 3 4]
V: 1 clef=treble
V: 2 clef=treble-8
V: 3 clef=treble-8
V: 4 clef=bass
K: Bb
[V:1] z8 | 
[V:2] z8 | 
[V:3] z4d4 | 
[V:4] D,8 | 
[V:1] z8 | 
[V:2] z8 | 
[V:3] e4d4 | 
[V:4] G,8 | 
[V:1] e6d2 | 
[V:2] g6f2 | 
[V:3] z8 | 
[V:4] z8 | 
[V:1] c4=B4 | 
[V:2] e4d4 | 
[V:3] z8 | 
[V:4] z8 | 
[V:1] c8 | 
[V:2] c4z4 | 
[V:3] A4c2c2- | 
[V:4] z8 | 
[V:1] z8 | 
[V:2] z8 | 
[V:3] c2c4B2 | 
[V:4] F,4E,2G,2- | 
[V:1] z4A3B | 
[V:2] z8 | 
[V:3] d6c2 | 
[V:4] G,2F,2F,4- | 
[V:1] c2c2d2cB | 
[V:2] z4d3e | 
[V:3] c4z4 | 
[V:4] F,4z4 | 
[V:1] A2d3Bc2 | 
[V:2] f2f2g2fe | 
[V:3] z8 | 
[V:4] z8 | 
[V:1] d2B2A4 | 
[V:2] d2g4^f2 | 
[V:3] z4d4 | 
[V:4] z8 | 
[V:1] z8 | 
[V:2] g8 | 
[V:3] e4d4 | 
[V:4] G,8- | 
[V:1] z8 | 
[V:2] z8 | 
[V:3] B2c2d2B2 | 
[V:4] G,8 | 
[V:1] z8 | 
[V:2] z8 | 
[V:3] c2d2G2c2- | 
[V:4] E,2F,2G,2E,2 | 
[V:1] z8 | 
[V:2] z4e4 | 
[V:3] c2=B2c4- | 
[V:4] F,2G,2C,4 | 
[V:1] A4A2A2 | 
[V:2] f4f2f2- | 
[V:3] c4A4 | 
[V:4] F,4F,2F,2 | 
[V:1] c4A2B2 | 
[V:2] f2edc2d2 | 
[V:3] A2A2c4 | 
[V:4] F,2F,4E,D, | 
[V:1] c6BA | 
[V:2] e2c2g4 | 
[V:3] A2G2c4- | 
[V:4] C,6C,2 | 
[V:1] G2c4B2 | 
[V:2] z4g4 | 
[V:3] c2BAG4 | 
[V:4] C,4z2G,2 | 
[V:1] e4d4 | 
[V:2] g4g4 | 
[V:3] z2c4B2 | 
[V:4] E,2C,2G,4 | 
[V:1] z2c2c2B2 | 
[V:2] g8- | 
[V:3] e4d4 | 
[V:4] C,4z2G,2 | 
[V:1] e4d4 | 
[V:2] g8 | 
[V:3] z2c2c2B2 | 
[V:4] E,2C,2G,4- | 
[V:1] B2c2d2B2- | 
[V:2] z8 | 
[V:3] e4d4 | 
[V:4] G,2A,2B,2G,2- | 
[V:1] B2AGF2G2 | 
[V:2] G4A2B2- | 
[V:3] B2c2dcde | 
[V:4] G,2F,E,D,2G,2- | 
[V:1] B3cd4 | 
[V:2] BGA2F4 | 
[V:3] d2c4=B2 | 
[V:4] G,E,F,2D,4 | 
[V:1] z2e4e2 | 
[V:2] G2g4g2 | 
[V:3] c8 | 
[V:4] C,8 | 
[V:1] e2e2c4 | 
[V:2] g2g2_a4 | 
[V:3] z8 | 
[V:4] z8 | 
[V:1] B8 | 
[V:2] g4z2e2- | 
[V:3] z8 | 
[V:4] z8 | 
[V:1] z2G4G2 | 
[V:2] e2e2e2e2 | 
[V:3] z8 | 
[V:4] z8 | 
[V:1] G2G2A4 | 
[V:2] e4f4 | 
[V:3] z8 | 
[V:4] z8 | 
[V:1] G2c4=B2 | 
[V:2] e2c2d4 | 
[V:3] z4d4 | 
[V:4] z8 | 
[V:1] c4z4 | 
[V:2] c4z4 | 
[V:3] e6d2 | 
[V:4] z4G,4 | 
[V:1] z8 | 
[V:2] z8 | 
[V:3] c4B4 | 
[V:4] _A,6G,2 | 
[V:1] z8 | 
[V:2] z8 | 
[V:3] z2d2e2e2 | 
[V:4] F,4E,4 | 
[V:1] z8 | 
[V:2] z8 | 
[V:3] d2c2e2dc | 
[V:4] z2F,2E,2_A,2 | 
[V:1] z8 | 
[V:2] z8 | 
[V:3] B4z2e2 | 
[V:4] G,2F,2E,4 | 
[V:1] z8 | 
[V:2] z8 | 
[V:3] d2c2B4 | 
[V:4] z2_A,2G,2F,2 | 
[V:1] z2c2e2d2- | 
[V:2] z8 | 
[V:3] e4c2d2 | 
[V:4] E,2_A,4F,2 | 
[V:1] d2c4=B2 | 
[V:2] z8 | 
[V:3] B2c2d4 | 
[V:4] G,2E,2F,2G,2 | 
[V:1] c8 | 
[V:2] e3fg2g2 | 
[V:3] c8 | 
[V:4] C,8 | 
[V:1] B3cd2d2 | 
[V:2] g8 | 
[V:3] z8 | 
[V:4] z8 | 
[V:1] d4A4- | 
[V:2] d8 | 
[V:3] z8 | 
[V:4] z8 | 
[V:1] A4z2c2- | 
[V:2] z2f4f2 | 
[V:3] z8 | 
[V:4] z8 | 
[V:1] c2c2c2c2 | 
[V:2] f2f2e2c2 | 
[V:3] z8 | 
[V:4] z8 | 
[V:1] B2A2c4 | 
[V:2] f4g4 | 
[V:3] d4e4 | 
[V:4] z8 | 
[V:1] d8 | 
[V:2] z8 | 
[V:3] d4d4 | 
[V:4] G,4B,4 | 
[V:1] z8 | 
[V:2] z8 | 
[V:3] f4e2c2 | 
[V:4] A,2F,2G,2E,2 | 
[V:1] A4B4 | 
[V:2] z8 | 
[V:3] d4d4 | 
[V:4] F,4G,4 | 
[V:1] c3BAGA2 | 
[V:2] e4f4 | 
[V:3] c4z4 | 
[V:4] C,4z4 | 
[V:1] G2B3cdc/d/ | 
[V:2] g4g2g2- | 
[V:3] z8 | 
[V:4] z8 | 
[V:1] e2d4c2 | 
[V:2] gfede4 | 
[V:3] z8 | 
[V:4] z8 | 
[V:1] d4z2d2 | 
[V:2] d2g2g2g2 | 
[V:3] z8 | 
[V:4] z8 | 
[V:1] d2d2e2d2- | 
[V:2] f2g4fe | 
[V:3] z8 | 
[V:4] z8 | 
[V:1] d2cBc2d2 | 
[V:2] f2g2c2g2- | 
[V:3] z8 | 
[V:4] z8 | 
[V:1] G2d4c2 | 
[V:2] g2f2d2e2 | 
[V:3] z8 | 
[V:4] z8 | 
[V:1] A2B3AGF | 
[V:2] f2g3fed | 
[V:3] z8 | 
[V:4] z8 | 
[V:1] EFGF/G/_A2G2 | 
[V:2] cded/e/f2e2 | 
[V:3] z8 | 
[V:4] z4z2C,2 | 
[V:1] F2E2D4 | 
[V:2] dcc4=B2 | 
[V:3] z8 | 
[V:4] D,2E,2F,2G,2 | 
[V:1] z8 | 
[V:2] c8 | 
[V:3] z2G2A2G2 | 
[V:4] C,8- | 
[V:1] c4A2G2 | 
[V:2] z8 | 
[V:3] c8 | 
[V:4] C,8 | 
[V:1] B2B2c2G2 | 
[V:2] z4z2e2 | 
[V:3] d4c4 | 
[V:4] z4z2C,2 | 
[V:1] A2G2c3B | 
[V:2] f2g2e4- | 
[V:3] c4c4 | 
[V:4] F,2E,2C,4- | 
[V:1] G2c3BAG | 
[V:2] e4e4- | 
[V:3] c4c4 | 
[V:4] C,4z2C2- | 
[V:1] A2G4^F2 | 
[V:2] e4c4 | 
[V:3] c8 | 
[V:4] CB,A,G,A,4 | 
[V:1] G8- | 
[V:2] B8 | 
[V:3] d4d4 | 
[V:4] G,8 | 
[V:1] G8 | 
[V:2] z2B2B2B2- | 
[V:3] e4d2d2 | 
[V:4] z2G,4G,2 | 
[V:1] z4z2B2 | 
[V:2] B2G2A2B2 | 
[V:3] B2c2d4 | 
[V:4] G,2E,2F,2G,2 | 
[V:1] c2e4d2 | 
[V:2] G2g2g2g2 | 
[V:3] c8 | 
[V:4] C,8 | 
[V:1] c3BA4 | 
[V:2] a2g4^f2 | 
[V:3] z4d4 | 
[V:4] z8 | 
[V:1] G8 | 
[V:2] g8 | 
[V:3] e4d4- | 
[V:4] G,8 | 
[V:1] z4c4 | 
[V:2] _a8 | 
[V:3] d4c4 | 
[V:4] F,4F,4 | 
[V:1] c4d4 | 
[V:2] g2_a2f4 | 
[V:3] c4B4 | 
[V:4] E,2F,2D,4 | 
[V:1] e3dcBc2- | 
[V:2] e8 | 
[V:3] c8- | 
[V:4] C,8 | 
[V:1] cBAGA4 | 
[V:2] f8 | 
[V:3] c8- | 
[V:4] F,8 | 
[V:1] G8 ||  
[V:2] e8 ||  
[V:3] c8 ||  
[V:4] C,8 ||  
[V:1]  [K:Bb] [K:clef=treble][M:2/1]A4A2A2- | 
[V:2]  [K:Bb] [K:clef=treble-8][M:2/1]f4f2f2- | 
[V:3]  [K:Bb] [K:clef=treble-8][M:2/1]c4d4 | 
[V:4]  [K:Bb] [K:clef=bass][M:2/1]F,4F,2F,2- | 
[V:1] A2A2c2c2 | 
[V:2] f2f2a2a2 | 
[V:3] c4A4 | 
[V:4] F,2F,2F,2F,2 | 
[V:1] d2d2c4 | 
[V:2] b2b2a4 | 
[V:3] z4z2c2- | 
[V:4] [B,,2B,2][B,,2B,2]F,4- | 
[V:1] A8 | 
[V:2] f8 | 
[V:3] c2c2d2d2 | 
[V:4] F,4F,4 | 
[V:1] z2A2A2A2 | 
[V:2] z2f2f2f2 | 
[V:3] c4A4 | 
[V:4] z2F,2F,2F,2 | 
[V:1] c3BG2A2- | 
[V:2] g3fe2d2 | 
[V:3] z2G2c2c2 | 
[V:4] C,3D,E,2F,2- | 
[V:1] A2G4F2 | 
[V:2] c8 | 
[V:3] c2c2c4 | 
[V:4] F,2E,2_A,4 | 
[V:1] G4B4- | 
[V:2] B8 | 
[V:3] d8 | 
[V:4] G,8 | 
[V:1] B4c4 | 
[V:2] z8 | 
[V:3] d4e4 | 
[V:4] z2B,4A,2 | 
[V:1] d3cB2A2 | 
[V:2] z8 | 
[V:3] d4d4- | 
[V:4] B,2G,4F,2 | 
[V:1] d2e2f4 | 
[V:2] z8 | 
[V:3] d2c2c2=B2 | 
[V:4] G,2C,2D,4 | 
[V:1] e8 | 
[V:2] g4_a2_a2 | 
[V:3] c8- | 
[V:4] C,8- | 
[V:1] z2e2e2e2 | 
[V:2] g4e4- | 
[V:3] c8 | 
[V:4] C,8 | 
[V:1] B2e4d2 | 
[V:2] e4f4 | 
[V:3] z8 | 
[V:4] z8 | 
[V:1] c2B2A4 | 
[V:2] e2d2f4 | 
[V:3] z4d4 | 
[V:4] z8 | 
[V:1] G8 | 
[V:2] g8 | 
[V:3] e4d2B2 | 
[V:4] z4G,4 | 
[V:1] z8 | 
[V:2] z8 | 
[V:3] c2A2BABG | 
[V:4] A,4G,4 | 
[V:1] z8 | 
[V:2] z8 | 
[V:3] A2G4c2- | 
[V:4] F,2G,2E,D,E,C, | 
[V:1] z8 | 
[V:2] z4z2e2 | 
[V:3] c2=B2c4 | 
[V:4] D,2D,2C,4 | 
[V:1] z8 | 
[V:2] e2e2g2g2 | 
[V:3] z4c4- | 
[V:4] z2E,2E,2E,2 | 
[V:1] z8 | 
[V:2] _a3ge2f2 | 
[V:3] c4c4 | 
[V:4] F,2G,2_A,3G, | 
[V:1] z2G2A2B2 | 
[V:2] g4z4 | 
[V:3] c4c4 | 
[V:4] E,4z4 | 
[V:1] c2d2e2dc | 
[V:2] z8 | 
[V:3] c4c4 | 
[V:4] z8 | 
[V:1] B8 | 
[V:2] z4z2g2 | 
[V:3] d8- | 
[V:4] z2G,2G,2G,2 | 
[V:1] z2d2d2d2 | 
[V:2] g2g2b4- | 
[V:3] d8 | 
[V:4] B,8 | 
[V:1] f6e2 | 
[V:2] b4a4 | 
[V:3] z2d2d2d2 | 
[V:4] B,4F,4- | 
[V:1] c4c2d2- | 
[V:2] a4a4 | 
[V:3] f6e2 | 
[V:4] F,8 | 
[V:1] dGc4=B2 | 
[V:2] g8 | 
[V:3] d3cd4 | 
[V:4] G,8 | 
[V:1] c8 | 
[V:2] z2e2e2e2 | 
[V:3] c8 | 
[V:4] C,8 | 
[V:1] z4z2B2 | 
[V:2] e3fg2g2 | 
[V:3] z8 | 
[V:4] z2E,2E,2E,2 | 
[V:1] B2B2B3c | 
[V:2] g8 | 
[V:3] z8 | 
[V:4] E,3F,G,2G,2 | 
[V:1] d2d2d4- | 
[V:2] g4f2e2 | 
[V:3] z8 | 
[V:4] G,8 | 
[V:1] d4z4 | 
[V:2] d6c2 | 
[V:3] z8 | 
[V:4] G,4F,2E,2 | 
[V:1] d4c2B2 | 
[V:2] d4f4- | 
[V:3] z8 | 
[V:4] D,8- | 
[V:1] A4B2A2- | 
[V:2] f4d4 | 
[V:3] z8 | 
[V:4] D,8 | 
[V:1] A2d4c2 | 
[V:2] z8 | 
[V:3] d4e4 | 
[V:4] z8 | 
[V:1] d4z4 | 
[V:2] f4e2g2- | 
[V:3] d4c4 | 
[V:4] z8 | 
[V:1] z8 | 
[V:2] gce2d4 | 
[V:3] c4B4 | 
[V:4] z8 | 
[V:1] z2G2G2G2 | 
[V:2] c4z4 | 
[V:3] c4c4 | 
[V:4] z4z2C,2 | 
[V:1] c8 | 
[V:2] z2c2cc3 | 
[V:3] c4c4 | 
[V:4] C,2C,2F,4 | 
[V:1] z2d4B2 | 
[V:2] f4g4 | 
[V:3] B6e2- | 
[V:4] z8 | 
[V:1] c2d2G4 | 
[V:2] e2f2g2d2 | 
[V:3] edd2e2d2 | 
[V:4] z4z2G,2- | 
[V:1] z8 | 
[V:2] g4z4 | 
[V:3] e2c4=B2 | 
[V:4] G,2E,2F,2G,2 | 
[V:1] z4e4- | 
[V:2] g6g2 | 
[V:3] c8 | 
[V:4] C,8 | 
[V:1] e2e2e2e2 | 
[V:2] g4g4 | 
[V:3] z2c4c2 | 
[V:4] C,6C,2 | 
[V:1] e8 | 
[V:2] g8 | 
[V:3] c2c2c4 | 
[V:4] C,4C,4 | 
[V:1] c4B2G2 | 
[V:2] g4g2b2- | 
[V:3] c4d4- | 
[V:4] C,4G,4- | 
[V:1] B4Bcdc/d/ | 
[V:2] b2a2g2f2 | 
[V:3] d8 | 
[V:4] G,2A,2B,4 | 
[V:1] e2d2c4 | 
[V:2] e2g4^f2 | 
[V:3] c2B2A4 | 
[V:4] C8 | 
[V:1] B8 | 
[V:2] g8 | 
[V:3] G8 | 
[V:4] D8 | 
[V:1] z2F2G2B2- | 
[V:2] z8 | 
[V:3] d4e4 | 
[V:4] D,4z4 | 
[V:1] BAFGA2G2- | 
[V:2] z8 | 
[V:3] d4c4 | 
[V:4] z8 | 
[V:1] G2F2G4 | 
[V:2] z2d2d2d2 | 
[V:3] B4B4 | 
[V:4] z4G,4 | 
[V:1] z8 | 
[V:2] e3fg2_a2- | 
[V:3] c8 | 
[V:4] C,3D,E,2F,2- | 
[V:1] z8 | 
[V:2] age4d2 | 
[V:3] z8 | 
[V:4] F,E,C,2G,4 | 
[V:1] z8 | 
[V:2] d2c3dB2 | 
[V:3] z8 | 
[V:4] B,2A,4G,2 | 
[V:1] z8 | 
[V:2] A4z2G2 | 
[V:3] z4d4 | 
[V:4] G,3^F,G,4 | 
[V:1] G4G2G2 | 
[V:2] G2G2G4 | 
[V:3] d2d2d4 | 
[V:4] z4z2G,2 | 
[V:1] G4z2G2 | 
[V:2] z8 | 
[V:3] z2d2e2e2 | 
[V:4] G,2G,2G,4 | 
[V:1] B3AF2G2 | 
[V:2] z8 | 
[V:3] d8 | 
[V:4] z2G,2B,3A, | 
[V:1] A2G2z4 | 
[V:2] z4g4 | 
[V:3] z2d2e2e2 | 
[V:4] F,2G,2C,4 | 
[V:1] z8 | 
[V:2] g2g2b3a | 
[V:3] e2e2d4- | 
[V:4] z2G,2G,2G,2 | 
[V:1] z8 | 
[V:2] f2g2a2g2- | 
[V:3] d4z2d2 | 
[V:4] B,3A,F,2G,2 | 
[V:1] c4c4 | 
[V:2] g2g4g2 | 
[V:3] e6d2 | 
[V:4] C,4C,4 | 
[V:1] e4e2d2- | 
[V:2] g2g2g4 | 
[V:3] c4B4 | 
[V:4] C,2C,2G,4 | 
[V:1] d2c4=B2 | 
[V:2] f4g4 | 
[V:3] c4d4 | 
[V:4] A,4G,4 | 
[V:1] c8 | 
[V:2] z8 | 
[V:3] c4c2c2 | 
[V:4] C,2F,2F,2_A,2 | 
[V:1] z8 | 
[V:2] z8 | 
[V:3] e2e2Bcde | 
[V:4] _A,2E,2G,4 | 
[V:1] z8 | 
[V:2] z8 | 
[V:3] d2c4=B2 | 
[V:4] F,3E,D,4 | 
[V:1] [M:3/1]z4z4A4 | 
[V:2] [M:3/1]z12 | 
[V:3] [M:3/1]c12 | 
[V:4] [M:3/1]C,12 | 
[V:1] B4c4A4 | 
[V:2] [M:3/1]d4e4f4 | 
[V:3] z12 | 
[V:4] z12 | 
[V:1] B4G4c4 | 
[V:2] d4e4c4 | 
[V:3] z12 | 
[V:4] z12 | 
[V:1] c4d8 | 
[V:2] f4f4g4- | 
[V:3] z12 | 
[V:4] z12 | 
[V:1] d4e4d4 | 
[V:2] g4g4g2g2 | 
[V:3] z12 | 
[V:4] z12 | 
[V:1] c4B2G2A4 | 
[V:2] _a4g4f4 | 
[V:3] z12 | 
[V:4] z12 | 
[V:1] G4A2c4=B2 | 
[V:2] e6c2d4 | 
[V:3] z12 | 
[V:4] z12 | 
[V:1] c12 | 
[V:2] c12 | 
[V:3] A6B2c4 | 
[V:4] z4F,6G,2 | 
[V:1] z12 | 
[V:2] z12 | 
[V:3] c4A6B2 | 
[V:4] A,4A,4F,4- | 
[V:1] z12 | 
[V:2] z12 | 
[V:3] c2A2c8 | 
[V:4] F,2G,2A,2F,2A,4 | 
[V:1] z12 | 
[V:2] z12 | 
[V:3] B2A2c6d2 | 
[V:4] F,4E,2D,2E,4 | 
[V:1] A4A4A4 | 
[V:2] f4f4f4 | 
[V:3] d8z4 | 
[V:4] D,8z4 | 
[V:1] B6A2B2A2 | 
[V:2] g8g4 | 
[V:3] d4d4d4 | 
[V:4] G,4G,4G,4 | 
[V:1] d6c2c4 | 
[V:2] f4b4a4 | 
[V:3] d4e8 | 
[V:4] D,4G,4A,4 | 
[V:1] d8e4 | 
[V:2] f4g8 | 
[V:3] d6c2B3A | 
[V:4] B,6A,2G,2F,E, | 
[V:1] f8e4 | 
[V:2] f8g4 | 
[V:3] d8c4 | 
[V:4] D,8E,4 | 
[V:1] c4d8 | 
[V:2] _a4f6e2 | 
[V:3] c6=B2=B4 | 
[V:4] F,4D,8 | 
[V:1] e6d2c2BA | 
[V:2] e8z4 | 
[V:3] c8z4 | 
[V:4] C,12 | 
[V:1] G8z4 | 
[V:2] e4e4e4 | 
[V:3] c4c4c4 | 
[V:4] z12 | 
[V:1] c4c4c4 | 
[V:2] g12 | 
[V:3] c8z4 | 
[V:4] C,4C,4C,4 | 
[V:1] B6G2A4 | 
[V:2] z12 | 
[V:3] d8d4- | 
[V:4] G,6F,2F,4 | 
[V:1] G2B4c2A4 | 
[V:2] g6e2f4 | 
[V:3] d4d8 | 
[V:4] G,4D,8 | 
[V:1] G2B4c2d2e2 | 
[V:2] g8g4 | 
[V:3] e4d2d4c2 | 
[V:4] G,6F,2E,4 | 
[V:1] f4e2d4c2 | 
[V:2] f4_a6g2 | 
[V:3] d8f4 | 
[V:4] D,4F,6E,2 | 
[V:1] c6=B2=B4 | 
[V:2] g6f2d4 | 
[V:3] e4d8 | 
[V:4] C,4G,8 | 
[V:1] [M:2/1]c8 | 
[V:2] [M:2/1]e4z2c2 | 
[V:3] [M:2/1]c8 | 
[V:4] [M:2/1]C,8 | 
[V:1] z2G2A2B2 | 
[V:2] d2e2f3d | 
[V:3] z8 | 
[V:4] z8 | 
[V:1] c3AB2G2 | 
[V:2] e4z2b2 | 
[V:3] z2c2d2e2- | 
[V:4] z4z2E,2 | 
[V:1] A2B2c4 | 
[V:2] a2g4f2 | 
[V:3] edd4c2 | 
[V:4] F,2G,2_A,3A, | 
[V:1] z2B2c2d2 | 
[V:2] g4f2b2- | 
[V:3] d2G2A2B2 | 
[V:4] G,4z4 | 
[V:1] e3cd2G2 | 
[V:2] b2a2b3a | 
[V:3] c4B2e2- | 
[V:4] z4z2E,2 | 
[V:1] A2B2c3_A | 
[V:2] agg4f2 | 
[V:3] edd4c2 | 
[V:4] F,2G,2_A,3A, | 
[V:1] [M:3/1]B6c2d4 | 
[V:2] [M:3/1]g6a2b4 | 
[V:3] [M:3/1]d12 | 
[V:4] [M:3/1]G,6F,2D,4 | 
[V:1] e8e4 | 
[V:2] c'6b2g4 | 
[V:3] z4z4G4 | 
[V:4] C,4E,8 | 
[V:1] d6c2B2A2 | 
[V:2] f8f4 | 
[V:3] B6c2d4 | 
[V:4] B,,8B,,4 | 
[V:1] G4G2B4c2 | 
[V:2] e4g6f2 | 
[V:3] e8e4 | 
[V:4] C,4E,6D,2 | 
[V:1] d6c2B4 | 
[V:2] f8z4 | 
[V:3] d8d4 | 
[V:4] B,,4B,6A,2 | 
[V:1] A4G6A2 | 
[V:2] f4d4e4 | 
[V:3] c4B6A2 | 
[V:4] F,4G,8 | 
[V:1] F4A4G4 | 
[V:2] d6c2c4 | 
[V:3] A6F2G4 | 
[V:4] D,4F,4E,4 | 
[V:1] F4B6A2 | 
[V:2] d4f6e2 | 
[V:3] A4d6c2 | 
[V:4] D,4B,,4F,4- | 
[V:1] A6G2G4 | 
[V:2] d8z4 | 
[V:3] A4B8 | 
[V:4] F,4G,6D,2- | 
[V:1] A12- | 
[V:2] d6c2c4 | 
[V:3] A12- | 
[V:4] D,8z4 | 
[V:1] A12- | 
[V:2] f8=e4 | 
[V:3] A12- | 
[V:4] D,8C,4 | 
[V:1] A12- | 
[V:2] c4d8 | 
[V:3] A12- | 
[V:4] F,6=E,2D,2C,B,, | 
[V:1] A12 |]  
[V:2] ^c12 & =e12 |]  
[V:3] A12 |]  
[V:4] A,,12 |]  



